X:1
T:Title
%%score { ( 1 4 ) | ( 2 3 ) }
L:1/8
Q:1/4=100
M:4/4
K:G
V:1 treble nm="Grand Piano"
V:4 treble 
V:2 bass 
V:3 bass 
V:1
 B3 A G2 D2 | EF[EG][CE] [B,D]2 [DG]2 | A3 B c2 A2 | B2 c2 d3 c | B3 A G2 D2 | %5
w: J.~H.~Hall * * *|||||
 EF[EG][CE] [B,D]2 [DG]2 | [DA]3 [DB] [Fc]2 [CFA]2 | [B,G]2 [A,DF]2 [B,DG]4 | d3 e d2 B2 | %9
w: ||||
 B3 c B2 G2 | B3 c d2 e2 | z4 [FA]4[K:bass] | B3 A G2 D2 | EF[EG][CE] [B,D]2 [DG]2 | %14
w: |||||
 [DA]3 [DB] [Fc]2 [CFA]2 | [B,G]2 [A,DF]2 [B,DG]4 |] %16
w: ||
V:2
 [G,D]3 [G,C] [G,B,]2 [G,B,]2 | CD [C,G,]2 [G,,G,]2 [B,,G,]2 | [D,F,D]3 [D,G,D] [D,A,D]2 [D,F,D]2 | %3
 [G,D]2 [G,A,G]2 [G,G]3- [G,A,G] | [G,D]3[K:bass] [G,C] [G,B,]2 [G,B,]2 | .C2 z2 z4 | %6
 [D,F,]3 [D,G,] [D,A,]2 D,2 | D,2 D,2 G,,4 | [G,B,G]3 [G,CG] [G,B,G]2 [G,D]2 | %9
 [G,DG]3 [G,EG] [G,DG]2 [G,B,D]2 | [G,D]3 [G,A,D] [G,B,G]2 [G,CG]2 | %11
 [G,B,G]2 [G,DG]2[K:bass] [D,D]4 | [G,D]3 [G,C] [G,B,]2 [G,B,]2 | .C2 z2 z4 | %14
 [D,F,]3 [D,G,] [D,A,]2 D,2 | D,2 D,2 G,,4 |] %16
V:3
 x8 | [C,G,]2 z2 z4 | x8 | z4 B,4 | x3[K:bass] x5 | [C,G,]-[C,G,D] [C,G,]2 [G,,G,]2 [B,,G,]2 | x8 | %7
 x8 | x8 | x8 | x8 | x4[K:bass] x4 | x8 | [C,G,]-[C,G,D] [C,G,]2 [G,,G,]2 [B,,G,]2 | x8 | x8 |] %16
V:4
 x8 | x8 | x8 | x8 | x8 | x8 | x8 | x8 | x8 | x8 | x8 | d2 B2 z[K:bass] C,B,,A,, | x8 | x8 | x8 | %15
 x8 |] %16

